!!!OTL: Gaoshan da shi shi luo tan
!!!ARE: Asia, China,ˇJiangxi, Lianhua
!! IV, 235
!!!SCT: C1679
!!!YEM: Copyright 1995, estate of Helmut Schaffrath.
**kern
*ICvox
*Ivox
!! Mixed meters:  3/4; 2/4
*M3/4
*k[b-e-]
*B-:
{4ccc
4ccc
8bb-
8ccc
=1
4bb-
4gg
4ff
=2
4gg
4.bb-
8ff
=3
2.gg}
=4
{4ccc
4ccc
8bb-
8gg
=5
4ff
4gg
4bb-
=6
4ccc
4.bb-
8gg
=7
2.ff}
=8
{4cc
4ff
4gg
=9
4bb-
4ccc
4gg
=10
4ccc
4bb-
4ccc
=11
4fff
2ddd}
=12
*M2/4
{4ddd
8ccc
8ddd
=13
*M3/4
4bb-
4ccc
4ddd
=14
4ccc
4.bb-
8gg
=15
2.ff}
=16
{4bb-
8gg
4.r
=17
*M2/4
4bb-
8ff
8gg
=18
4bb-
4bb-
=19
*M3/4
4bb-
4ff
4bb-
=20
2.gg}
=21
*M2/4
{4ddd
8ddd
8ccc
=22
*M3/4
4gg
2ccc
=23
4ccc
4.bb-
8gg
=24
*M2/4
[2ff
=25
4ff]
4r}
==
!!!AGN: Shange. NannÅ qing
!!!AMT: irregular
!!!AIN: vox
!!!EED: Helmut Schaffrath
!!!EEV: 1.0
*-
!!!ONB: Tied note syntax fixed by Craig Sapp, 2004/05/03/
